X:1
T:Lady Susan Gordon's Reel
B:William Marshall A Collection Of Strathspey Reels (1781)
C:William Marshall
M:C|
O:Scotland
R:Reel
Z:Clark Bernst + Richard Robinson
%%Page:5 - 3
F:http://richardrobinson.tunebook.org.uk/tune/6580
%%TBL:{"version":1,"type":"tune","id":"6580"}
K:Bb
%%staves { 1 2}
BfdB fBdB | GBFD EC-C2 | BfdB fBdB | (g/a/b) (fe) dB-B2 :: \
(D/E/F) (BF) dFBF | ! (E/F/G) (cG) eGcG |1 \
(D/E/F) (BF) dFBF | FAce dB-!trill!B2 :|2 (D/E/F) (BF) dBfd | (g/a/b) (fe) dB-!trill!B2 |]
V:2 middle=d clef=bass
L:1/4
BBbb | edcc | bBdB | efGG :: \
BBbb | cccc |1 bBdB | fFBB :|2 BBbb | efbB |]

